X: 145
T: Yuer lang
%%abc-version 2.0
%%abcx-abcm2ps-target-version 5.9.1 (29 Sep 2008)
%%abc-creator hum2abc beta
%%abcx-conversion-date 2013/10/02 07:52:29
%%abc-edited-by Helmut Schaffrath
%%humdrum-veritas 3970072553
%%humdrum-veritas-data 1298053719
%%continueall 1
%%barnumbers 0
L: 1/8
M: 2/4
K: Eb
c2c2 [I:setbarnb 1]| 
z e c B | 
B GB2- | 
B2G B | 
c2e2 | 
zB2G | 
B GF2- | 
F2c2 | 
c2z e | 
c B B G | 
B4 | 
G Bc2 | 
e2z B- | 
B G B G | 
F4 | 
B3G | 
F G F E | 
F DC2 | 
zC2E | 
B GF2 | 
zC2E | 
B GF2 | 
zB2C | 
E F D C | 
B,4 |]  



